X:1
T:Title
%%score { 1 | 2 }
L:1/8
M:4/4
K:Bb
V:1 treble nm="Grand Piano"
V:2 bass 
V:1
 z4 z2[Q:1/4=100] [B,D][CE] | [DF]2 [_D=E][=DF] [Fd]2 [Fe][Fd] | c2 =Bc [EG]2 [EA][E_B] | %3
 A2 CD E2 G2 | [DF]6 [B,D][CE] | [DF]2 [_D=E][=DF] [Fd]2 [Fe][Fd] | c2 =Bc [EG]2 AG | F2 de d2 c2 | %8
[M:3/4] [DB]6 |[M:1/4] [Fc][FB] |[M:4/4] [EA]2 ed e2 AG | [DF]2 [Fd][=E_d] [F=d]2 [Fd]2 | %12
 [CFc]2 [DF][_DFG] [CFA]2 [C=EG]2 | [A,F]6[K:bass] [F,B,D][F,CE] | %14
[M:3/4][K:treble] [DF]2 [_D=E][=DF] [Fd]2 |[M:1/4] [Fe][Fd] | %16
[M:9/8] [Gc]2 [Gc] [Gd] [Ge]2- [Ge][Gd][Gc] |[M:4/4] B2 FB d2 cc |[M:3/4] [DB]6 |] %19
V:2
 z4 z2 [B,,F,][B,,F,] | [B,,B,]2 [B,,B,][B,,B,] [B,,B,]2 [C,A,][D,B,] | %2
 [E,G,E]2 [E,G,E][E,G,E] [C,C]2 [C,C][C,C] | [F,CE]2 [F,A,][F,B,] [F,A,C]2 [F,A,E]2 | %4
 [B,,B,]6 [B,,F,][B,,F,] | [B,,B,]2 [B,,B,][B,,B,] [B,,B,]2 [C,A,][D,B,] | %6
 [E,G,E]2 [E,G,E][E,G,E] [C,C]2 [=E,B,_D][E,B,D] | [F,B,D]2 [F,B,F][F,B,G] [F,A,F]2 [F,A,E]2 | %8
[M:3/4] [B,,B,]6 |[M:1/4] [D,B,][D,B,] |[M:4/4] [C,F,]2 [F,A,F][F,_A,F] [F,=A,F]2 [F,CE][F,A,E] | %11
 [B,,B,]2 [B,,B,][B,,B,] [B,,B,]2 [B,,B,]2 | A,,2 B,,B,, C,2 C,2 | F,6 B,,B,, | %14
[M:3/4] [B,,B,]2 [B,,B,][B,,B,] [B,,B,]2 |[M:1/4] [C,A,][D,B,] | %16
[M:9/8] [E,B,]2 [E,B,] [D,=B,] [C,C]2- [C,C][D,B,][E,C] | %17
[M:4/4] [F,DF]2 [F,B,D][F,DF] [F,B,F]2 [F,A,E][F,A,E] |[M:3/4] [B,,B,]6 |] %19

